src/assets/duotone/Ontology.svg

<svg width="24" height="24" viewBox="0 0 24 24"  xmlns="http://www.w3.org/2000/svg">
<path opacity="0.4" d="M17.8997 19.6805C16.1797 21.1805 13.9097 22.0705 11.4197 22.0005C6.24974 21.8605 2.21973 17.4105 2.21973 12.2405V5.21052C2.21973 4.76052 2.75973 4.54052 3.06973 4.86052L17.8997 19.6805Z" />
<path d="M6.21973 4.29998C7.92973 2.80998 10.1797 1.92998 12.6497 1.99998C17.7797 2.13998 21.7697 6.54998 21.7697 11.68V18.64C21.7697 19.09 21.2297 19.31 20.9197 18.99L6.21973 4.29998Z" />
</svg>

<?xml version="1.0" encoding="UTF-8"?>
<svg width="24" height="24" viewBox="0 0 24 24" xmlns="http://www.w3.org/2000/svg">
 <path d="m17.9 19.68c-1.72 1.5-3.99 2.39-6.48 2.32-5.17-0.14-9.2-4.59-9.2-9.76v-7.03c0-0.45 0.54-0.67 0.85-0.35l14.83 14.82z" opacity=".4"/>
 <path d="m6.2197 4.3c1.71-1.49 3.96-2.37 6.43-2.3 5.13 0.14 9.12 4.55 9.12 9.68v6.96c0 0.45-0.54 0.67-0.85 0.35l-14.7-14.69z"/>
</svg>
